build/img/sprite/icon-forum.svg

<svg width="58" height="58" viewBox="0 0 58 58" fill="none" xmlns="http://www.w3.org/2000/svg">
<circle cx="29" cy="29" r="29" fill="#FCA844"/>
<g clip-path="url(#clip0_991_1162)">
<path d="M40.0912 15.6285H16.8443C16.0737 15.6285 15.3345 15.936 14.7896 16.4834C14.2446 17.0308 13.9385 17.7732 13.9385 18.5473V34.1144C13.9385 34.8885 14.2446 35.6309 14.7896 36.1783C15.3345 36.7257 16.0737 37.0332 16.8443 37.0332H23.6247L28.4678 42.8709L33.3109 37.0332H40.0912C40.8619 37.0332 41.601 36.7257 42.146 36.1783C42.6909 35.6309 42.9971 34.8885 42.9971 34.1144V18.5473C42.9971 17.7732 42.6909 17.0308 42.146 16.4834C41.601 15.936 40.8619 15.6285 40.0912 15.6285V15.6285Z" stroke="white" stroke-width="2" stroke-miterlimit="10" stroke-linecap="square"/>
<path d="M20.2959 23.8012H35.7333" stroke="white" stroke-width="2" stroke-miterlimit="10" stroke-linecap="square"/>
<path d="M20.2959 29.2496H29.3767" stroke="white" stroke-width="2" stroke-miterlimit="10" stroke-linecap="square"/>
</g>
<defs>
<clipPath id="clip0_991_1162">
<rect width="31" height="31" fill="white" transform="translate(13 13.75)"/>
</clipPath>
</defs>
</svg>

<svg width="58" height="58" fill="none" xmlns="http://www.w3.org/2000/svg"><circle cx="29" cy="29" r="29" fill="#FCA844"/><g clip-path="url(#clip0_991_1162)" stroke="#fff" stroke-width="2" stroke-miterlimit="10" stroke-linecap="square"><path d="M40.091 15.629H16.844a2.9 2.9 0 00-2.054.854 2.925 2.925 0 00-.851 2.064v15.567c0 .775.306 1.517.85 2.064a2.9 2.9 0 002.055.855h6.78l4.844 5.838 4.843-5.838h6.78a2.9 2.9 0 002.055-.855c.545-.547.851-1.29.851-2.064V18.547c0-.774-.306-1.516-.851-2.064a2.9 2.9 0 00-2.055-.854v0zm-19.795 8.172h15.437M20.296 29.25h9.08"/></g><defs><clipPath id="clip0_991_1162"><path fill="#fff" transform="translate(13 13.75)" d="M0 0h31v31H0z"/></clipPath></defs></svg>
